svg/business/red_packet_fill.svg

<?xml version="1.0" encoding="UTF-8"?>
<svg width="24px" height="24px" viewBox="0 0 24 24" version="1.1" xmlns="http://www.w3.org/2000/svg" xmlns:xlink="http://www.w3.org/1999/xlink">
    <title>red_packet_fill</title>
    <g id="页面-1" stroke="none" stroke-width="1" fill="none" fill-rule="evenodd">
        <g id="Business" transform="translate(-816.000000, -144.000000)" fill-rule="nonzero">
            <g id="red_packet_fill" transform="translate(816.000000, 144.000000)">
                <path d="M24,0 L24,24 L0,24 L0,0 L24,0 Z M12.5934901,23.257841 L12.5819402,23.2595131 L12.5108777,23.2950439 L12.4918791,23.2987469 L12.4918791,23.2987469 L12.4767152,23.2950439 L12.4056548,23.2595131 C12.3958229,23.2563662 12.3870493,23.2590235 12.3821421,23.2649074 L12.3780323,23.275831 L12.360941,23.7031097 L12.3658947,23.7234994 L12.3769048,23.7357139 L12.4804777,23.8096931 L12.4953491,23.8136134 L12.4953491,23.8136134 L12.5071152,23.8096931 L12.6106902,23.7357139 L12.6232938,23.7196733 L12.6232938,23.7196733 L12.6266527,23.7031097 L12.609561,23.275831 C12.6075724,23.2657013 12.6010112,23.2592993 12.5934901,23.257841 L12.5934901,23.257841 Z M12.8583906,23.1452862 L12.8445485,23.1473072 L12.6598443,23.2396597 L12.6498822,23.2499052 L12.6498822,23.2499052 L12.6471943,23.2611114 L12.6650943,23.6906389 L12.6699349,23.7034178 L12.6699349,23.7034178 L12.678386,23.7104931 L12.8793402,23.8032389 C12.8914285,23.8068999 12.9022333,23.8029875 12.9078286,23.7952264 L12.9118235,23.7811639 L12.8776777,23.1665331 C12.8752882,23.1545897 12.8674102,23.1470016 12.8583906,23.1452862 L12.8583906,23.1452862 Z M12.1430473,23.1473072 C12.1332178,23.1423925 12.1221763,23.1452606 12.1156365,23.1525954 L12.1099173,23.1665331 L12.0757714,23.7811639 C12.0751323,23.7926639 12.0828099,23.8018602 12.0926481,23.8045676 L12.108256,23.8032389 L12.3092106,23.7104931 L12.3186497,23.7024347 L12.3186497,23.7024347 L12.3225043,23.6906389 L12.340401,23.2611114 L12.337245,23.2485176 L12.337245,23.2485176 L12.3277531,23.2396597 L12.1430473,23.1473072 Z" id="MingCute" fill-rule="nonzero"></path>
                <path d="M20,6.76199 L20,19 C20,20.597725 18.7511226,21.903664 17.1762773,21.9949075 L17,22 L7,22 C5.40232321,22 4.09633941,20.7511226 4.00509271,19.1762773 L4,19 L4,6.7622 L4.67095,7.56735 C6.16058,9.3549 8.23948,10.5228 10.5046,10.8822 L10.5,11 L10.5,11 C10.5,11.8284 11.1716,12.5 12,12.5 C12.8284,12.5 13.5,11.8284 13.5,11 L13.4954,10.8822 L13.4954,10.8822 C15.6526381,10.539819 17.6408966,9.46424082 19.1121353,7.81847146 L19.3289,7.56735 L20,6.76199 Z M17,2 C18.1987053,2 19.2332565,2.70308 19.71372,3.71937433 L19.7886,3.89159 L17.7924,6.28698 C16.3598,8.00608 14.2377,9.00005 11.9999,9.00005 C9.85943391,9.00005 7.82473418,8.09063321 6.398113,6.50707607 L6.20739,6.28698 L4.21136,3.89173 C4.62899789,2.84177105 5.62244931,2.08336723 6.80178905,2.00644372 L7,2 L17,2 Z" id="形状" fill="#09244B"></path>
            </g>
        </g>
    </g>
</svg>

<svg xmlns="http://www.w3.org/2000/svg" width="24" height="24"><g fill="none" fill-rule="nonzero"><path d="M24 0v24H0V0zM12.593 23.258l-.011.002-.071.035-.02.004-.014-.004-.071-.035c-.01-.004-.019-.001-.024.005l-.004.01-.017.428.005.02.01.013.104.074.015.004.012-.004.104-.074.012-.016.004-.017-.017-.427c-.002-.01-.009-.017-.017-.018m.265-.113-.013.002-.185.093-.01.01-.003.011.018.43.005.012.008.007.201.093c.012.004.023 0 .029-.008l.004-.014-.034-.614c-.003-.012-.01-.02-.02-.022m-.715.002a.023.023 0 0 0-.027.006l-.006.014-.034.614c0 .012.007.02.017.024l.015-.002.201-.093.01-.008.004-.011.017-.43-.003-.012-.01-.01z"/><path fill="#09244B" d="M20 6.762V19a3 3 0 0 1-2.824 2.995L17 22H7a3 3 0 0 1-2.995-2.824L4 19V6.762l.671.805a9.54 9.54 0 0 0 5.834 3.315L10.5 11a1.5 1.5 0 0 0 3 0l-.005-.118a9.541 9.541 0 0 0 5.617-3.064l.217-.25zM17 2a3 3 0 0 1 2.714 1.72l.075.172-1.997 2.395a7.54 7.54 0 0 1-11.394.22l-.19-.22L4.21 3.892a3.002 3.002 0 0 1 2.59-1.886L7 2z"/></g></svg>
